assets/Man office worker/Medium-Dark/Flat/man_office_worker_flat_medium-dark.svg

<svg width="32" height="32" viewBox="0 0 32 32" fill="none" xmlns="http://www.w3.org/2000/svg">
<path d="M15.9961 15.9961L11.9152 16.282C7.86076 17.9021 5 21.8639 5 26.5001V30.0001H27V26.5001C27 21.886 24.1514 17.9306 20.1188 16.2987L15.9961 15.9961Z" fill="#433B6B"/>
<path d="M18.71 16.1201H13.29L13.3 30H18.71V16.1201Z" fill="#D3D3D3"/>
<path d="M18.8744 15.8802L18.71 16.04V29.99L21.46 22.13C21.58 21.77 21.49 21.38 21.22 21.12L19.86 19.79C19.69 19.62 19.81 19.34 20.05 19.34H21.1C21.31 19.34 21.45 19.12 21.36 18.93L20.13 16.31C20.1287 16.3072 20.1274 16.3044 20.1261 16.3016C19.7203 16.1371 19.3025 15.996 18.8744 15.8802Z" fill="#8D65C5"/>
<path d="M11.9127 16.283C11.9118 16.2853 11.9109 16.2876 11.91 16.29L10.64 18.98C10.55 19.17 10.7 19.39 10.91 19.39H11.96C12.2 19.39 12.31 19.68 12.15 19.84L10.79 21.17C10.53 21.43 10.43 21.82 10.56 22.17L13.29 29.99H13.3V16.09L12.875 15.9494C12.5476 16.0461 12.2266 16.1575 11.9127 16.283Z" fill="#8D65C5"/>
<path d="M15.9901 18.6801L14.3101 19.0001L15.2901 21.1101L13.9301 30H18.0401L16.6901 21.1101L17.6601 19.0001L15.9901 18.6801Z" fill="#321B41"/>
<path d="M16 15.3101H13.29V20.0501C13.29 20.3601 13.65 20.5401 13.9 20.3401L16 18.6701L18.1 20.3401C18.35 20.5401 18.71 20.3601 18.71 20.0501V15.3101H16V15.3101Z" fill="#E6E6E6"/>
<path d="M12.7701 10.59C12.7701 11.5124 12.0224 12.26 11.1001 12.26C10.1777 12.26 9.43005 11.5124 9.43005 10.59C9.43005 9.66773 10.1777 8.92004 11.1001 8.92004C12.0224 8.92004 12.7701 9.66773 12.7701 10.59Z" fill="#8B5C56"/>
<path d="M22.56 10.59C22.56 11.5124 21.8123 12.26 20.89 12.26C19.9677 12.26 19.22 11.5124 19.22 10.59C19.22 9.66773 19.9677 8.92004 20.89 8.92004C21.8123 8.92004 22.56 9.66773 22.56 10.59Z" fill="#8B5C56"/>
<path d="M16 18.5C14.8932 18.5 14 17.5359 14 16.3413V13.6587C14 12.4641 14.8932 11.5 16 11.5C17.1068 11.5 18 12.4641 18 13.6587V16.3413C18 17.5359 17.1068 18.5 16 18.5Z" fill="#8B5C56"/>
<path d="M15.5553 3C12.7685 3 10.5647 5.40719 10.7623 8.24748L11.1576 13.9381C11.3256 15.7209 12.7092 17 14.3892 17H17.6108C19.2908 17 20.6744 15.7209 20.8424 13.9381L21.2377 8.24748C21.4353 5.41727 19.2315 3 16.4447 3H15.5553V3Z" fill="#966661"/>
<path d="M12.3099 10.5018C12.4599 9.89176 13.0199 9.43176 13.6799 9.43176C14.3699 9.43176 14.9399 9.92176 15.0699 10.5718C15.0999 10.7118 14.9899 10.8418 14.8399 10.8418H12.5799C12.3999 10.8418 12.2599 10.6718 12.3099 10.5018Z" fill="white"/>
<path d="M19.9 10.5018C19.75 9.89176 19.19 9.43176 18.53 9.43176C17.84 9.43176 17.27 9.92176 17.14 10.5718C17.11 10.7118 17.22 10.8418 17.37 10.8418H19.63C19.81 10.8418 19.94 10.6818 19.9 10.5018Z" fill="white"/>
<path d="M12.98 10.6117C12.98 10.1117 13.39 9.70166 13.89 9.70166C14.39 9.70166 14.79 10.1017 14.79 10.6017C14.79 10.6917 14.78 10.7717 14.76 10.8517H13.01C12.99 10.7717 12.98 10.6917 12.98 10.6117Z" fill="#7D4533"/>
<path d="M19.2299 10.6117C19.2299 10.1117 18.8199 9.70166 18.3199 9.70166C17.8199 9.70166 17.4199 10.1017 17.4199 10.6117C17.4199 10.6917 17.4299 10.7717 17.4499 10.8517H19.1999C19.2199 10.7717 19.2299 10.6917 19.2299 10.6117Z" fill="#7D4533"/>
<path d="M13.89 10.0817C14.18 10.0817 14.41 10.3117 14.41 10.6017C14.41 10.6917 14.38 10.7717 14.35 10.8417H13.43C13.39 10.7717 13.37 10.6917 13.37 10.6017C13.37 10.3117 13.6 10.0817 13.89 10.0817Z" fill="black"/>
<path d="M18.3199 10.0817C18.0299 10.0817 17.7999 10.3117 17.7999 10.6017C17.7999 10.6917 17.8299 10.7717 17.8599 10.8417H18.7799C18.8199 10.7717 18.8399 10.6917 18.8399 10.6017C18.8399 10.3117 18.6099 10.0817 18.3199 10.0817Z" fill="black"/>
<path d="M13.7399 10.2517C13.7399 10.34 13.6683 10.4117 13.5799 10.4117C13.4916 10.4117 13.4199 10.34 13.4199 10.2517C13.4199 10.1633 13.4916 10.0917 13.5799 10.0917C13.6683 10.0917 13.7399 10.1633 13.7399 10.2517Z" fill="white"/>
<path d="M18.2 10.2517C18.2 10.34 18.1284 10.4117 18.04 10.4117C17.9516 10.4117 17.88 10.34 17.88 10.2517C17.88 10.1633 17.9516 10.0917 18.04 10.0917C18.1284 10.0917 18.2 10.1633 18.2 10.2517Z" fill="white"/>
<path d="M21.183 4.3917L20.7647 4.1817C20.4729 4.0317 20.2005 3.8317 19.967 3.5917L19.1499 2.7517C18.537 2.1217 17.6323 1.9117 16.8151 2.2017C16.2898 2.3917 15.7061 2.3917 15.1808 2.2017C14.4707 1.8317 13.6049 1.9817 13.0309 2.5617L12.0386 3.5817C11.8052 3.8217 11.5328 4.0217 11.2312 4.1817L10.8226 4.3917C10.0541 4.7917 9.62608 5.6617 9.78173 6.5317L10.3362 9.6617C10.3946 9.9717 10.6573 10.2017 10.9588 10.2117C10.9588 10.2117 10.9005 9.3217 10.8615 8.7517C10.8421 8.4617 10.9588 8.1717 11.1728 7.9717L11.3577 7.8017C11.6106 7.5717 11.7468 7.2417 11.7468 6.9017V6.0217C11.7468 5.7717 11.9122 5.5517 12.1457 5.4917C12.778 5.3317 14.1302 5.0517 15.998 5.0517C17.8658 5.0517 19.218 5.3317 19.8503 5.4917C20.0837 5.5517 20.2491 5.7717 20.2491 6.0217V6.9017C20.2491 7.2417 20.395 7.5717 20.6382 7.8017L20.8328 7.9817C21.0468 8.1817 21.1636 8.4617 21.1441 8.7617C21.1052 9.3317 21.0468 10.2117 21.0468 10.2117C21.3484 10.1917 21.6013 9.9717 21.6597 9.6617L22.2142 6.5317C22.3796 5.6617 21.9613 4.7917 21.183 4.3917Z" fill="#2D242D"/>
<path d="M19.24 8.93176C19.35 9.00177 19.46 9.04177 19.58 9.04177C19.75 9.04177 19.91 8.97177 20.01 8.82177C20.2 8.58177 20.15 8.23177 19.91 8.04177C19.88 8.01177 19.04 7.37177 17.82 7.52177C17.51 7.56177 17.29 7.84177 17.33 8.14176C17.37 8.45177 17.64 8.67177 17.95 8.63177C18.6767 8.54456 19.1781 8.88922 19.2358 8.92891C19.2377 8.93018 19.24 8.93176 19.24 8.93176Z" fill="#372128"/>
<path d="M12.19 8.82174C12.29 8.96174 12.46 9.04173 12.63 9.04173C12.74 9.04173 12.86 9.00173 12.96 8.93173C12.98 8.91173 13.49 8.54174 14.25 8.63174C14.56 8.66174 14.83 8.44173 14.87 8.14173C14.9 7.83173 14.68 7.56173 14.38 7.52173C13.17 7.38173 12.32 8.01173 12.29 8.04173C12.05 8.23173 12 8.57174 12.19 8.82174Z" fill="#372128"/>
<path d="M15.6541 10.2897L15.1583 12.0282C15.0554 12.384 15.2986 12.75 15.6447 12.75H16.3743C16.7204 12.75 16.9636 12.384 16.8607 12.0282L16.365 10.2897C16.2621 9.90342 15.7663 9.90342 15.6541 10.2897Z" fill="#75443E"/>
<path d="M16.0005 13.7058C15.45 13.7058 14.9301 13.567 14.4918 13.3214C14.3389 13.2359 14.186 13.4175 14.2777 13.567C14.6447 14.1543 15.2767 14.5494 16.0005 14.5494C16.7243 14.5494 17.3563 14.1543 17.7233 13.567C17.8151 13.4175 17.652 13.2466 17.5093 13.3214C17.0607 13.567 16.551 13.7058 16.0005 13.7058Z" fill="#990838"/>
</svg>

<svg xmlns="http://www.w3.org/2000/svg" width="32" height="32" fill="none"><path fill="#433B6B" d="m15.996 15.996-4.08.286A10.997 10.997 0 0 0 5 26.5V30h22v-3.5c0-4.614-2.849-8.57-6.881-10.201l-4.123-.303Z"/><path fill="#D3D3D3" d="M18.71 16.12h-5.42L13.3 30h5.41V16.12Z"/><path fill="#8D65C5" d="m18.874 15.88-.164.16v13.95l2.75-7.86c.12-.36.03-.75-.24-1.01l-1.36-1.33a.262.262 0 0 1 .19-.45h1.05c.21 0 .35-.22.26-.41l-1.23-2.62-.004-.008a10.925 10.925 0 0 0-1.252-.422ZM11.913 16.283a.521.521 0 0 0-.003.007l-1.27 2.69c-.09.19.06.41.27.41h1.05c.24 0 .35.29.19.45l-1.36 1.33c-.26.26-.36.65-.23 1l2.73 7.82h.01v-13.9l-.425-.14c-.327.096-.648.207-.962.333Z"/><path fill="#321B41" d="m15.99 18.68-1.68.32.98 2.11L13.93 30h4.11l-1.35-8.89.97-2.11-1.67-.32Z"/><path fill="#E6E6E6" d="M16 15.31h-2.71v4.74c0 .31.36.49.61.29l2.1-1.67 2.1 1.67c.25.2.61.02.61-.29v-4.74H16Z"/><path fill="#8B5C56" d="M12.77 10.59a1.67 1.67 0 1 1-3.34 0 1.67 1.67 0 0 1 3.34 0ZM22.56 10.59a1.67 1.67 0 1 1-3.34 0 1.67 1.67 0 0 1 3.34 0ZM16 18.5c-1.107 0-2-.964-2-2.159V13.66c0-1.195.893-2.159 2-2.159s2 .964 2 2.159v2.682c0 1.195-.893 2.159-2 2.159Z"/><path fill="#966661" d="M15.555 3c-2.787 0-4.99 2.407-4.793 5.247l.396 5.691C11.326 15.721 12.709 17 14.389 17h3.222c1.68 0 3.063-1.28 3.231-3.062l.396-5.69C21.435 5.417 19.232 3 16.445 3h-.89Z"/><path fill="#fff" d="M12.31 10.502c.15-.61.71-1.07 1.37-1.07.69 0 1.26.49 1.39 1.14.03.14-.08.27-.23.27h-2.26c-.18 0-.32-.17-.27-.34ZM19.9 10.502c-.15-.61-.71-1.07-1.37-1.07-.69 0-1.26.49-1.39 1.14-.03.14.08.27.23.27h2.26c.18 0 .31-.16.27-.34Z"/><path fill="#7D4533" d="M12.98 10.612c0-.5.41-.91.91-.91s.9.4.9.9c0 .09-.01.17-.03.25h-1.75a.986.986 0 0 1-.03-.24ZM19.23 10.612c0-.5-.41-.91-.91-.91s-.9.4-.9.91c0 .08.01.16.03.24h1.75c.02-.08.03-.16.03-.24Z"/><path fill="#000" d="M13.89 10.082a.516.516 0 0 1 .46.76h-.92a.516.516 0 0 1 .46-.76ZM18.32 10.082a.516.516 0 0 0-.46.76h.92a.516.516 0 0 0-.46-.76Z"/><path fill="#fff" d="M13.74 10.252a.16.16 0 1 1-.32 0 .16.16 0 0 1 .32 0ZM18.2 10.252a.16.16 0 1 1-.32 0 .16.16 0 0 1 .32 0Z"/><path fill="#2D242D" d="m21.183 4.392-.418-.21a3.086 3.086 0 0 1-.798-.59l-.817-.84a2.212 2.212 0 0 0-2.335-.55c-.525.19-1.109.19-1.634 0-.71-.37-1.576-.22-2.15.36l-.992 1.02c-.234.24-.506.44-.808.6l-.408.21a2.015 2.015 0 0 0-1.041 2.14l.554 3.13c.059.31.321.54.623.55l-.098-1.46a.987.987 0 0 1 .312-.78l.185-.17c.253-.23.389-.56.389-.9v-.88c0-.25.165-.47.399-.53.632-.16 1.984-.44 3.852-.44 1.868 0 3.22.28 3.852.44.234.06.4.28.4.53v.88c0 .34.145.67.388.9l.195.18c.214.2.33.48.311.78l-.097 1.45a.668.668 0 0 0 .613-.55l.554-3.13a1.982 1.982 0 0 0-1.031-2.14Z"/><path fill="#372128" d="M19.24 8.932c.11.07.22.11.34.11.17 0 .33-.07.43-.22.19-.24.14-.59-.1-.78-.03-.03-.87-.67-2.09-.52a.56.56 0 0 0 .13 1.11 1.917 1.917 0 0 1 1.29.3ZM12.19 8.822c.1.14.27.22.44.22.11 0 .23-.04.33-.11.02-.02.53-.39 1.29-.3.31.03.58-.19.62-.49a.568.568 0 0 0-.49-.62c-1.21-.14-2.06.49-2.09.52-.24.19-.29.53-.1.78Z"/><path fill="#75443E" d="m15.654 10.29-.496 1.738c-.103.356.14.722.487.722h.73c.345 0 .589-.366.486-.722l-.496-1.738c-.103-.387-.599-.387-.71 0Z"/><path fill="#990838" d="M16 13.706a3.09 3.09 0 0 1-1.508-.385c-.153-.085-.306.097-.214.246.367.587.999.982 1.722.982.724 0 1.356-.395 1.723-.982.092-.15-.071-.32-.214-.246a3.12 3.12 0 0 1-1.509.385Z"/></svg>
